src/images_karasa_jaga_svg/cmd/lc_arrowshapes.split-round-arrow.svg

<svg height="24" viewBox="0 0 24 24" width="24" xmlns="http://www.w3.org/2000/svg" xmlns:xlink="http://www.w3.org/1999/xlink"><linearGradient id="a" gradientUnits="userSpaceOnUse" x1="64" x2="64" y1="128" y2="12"><stop offset="0" stop-color="#fff"/><stop offset=".58620691" stop-color="#fff"/><stop offset=".86206895" stop-color="#f1f1f1"/><stop offset=".93103451" stop-color="#eaeaea"/><stop offset="1" stop-color="#dfdfdf"/></linearGradient><linearGradient id="b" gradientUnits="userSpaceOnUse" x1="6.215842" x2="121.7822" y1="67.636063" y2="67.636063"><stop offset="0" stop-color="#7c9fcf"/><stop offset=".5" stop-color="#7c9ece"/><stop offset="1" stop-color="#7b9dcf"/></linearGradient><g fill-rule="evenodd" transform="matrix(.171875 0 0 .171875 1.000155 -.000155)"><path d="m28.792969 7.328125c-.731418-.090137-1.308503-.042207-1.746094.015625-.211608.016086.238017-.052903-.220703.021484l-.0078.00195c-.861302.1407371-.412252.0725547-.458997.1093785-.378547.0880952-.790727.2070663-1.222656.3984375-.357051.1582603-.443456.2144645-.28711.1367188-.01043.00518-.02085.010385-.03125.015625.398575-.2011157.246752-.1419471-.230468.1210937-.401168.2222652-.999538.6091143-1.558594 1.1679687-.241315.2412992-.460913.5033789-.65625.7832028l-14.8945314 21.333985c-.1489138.2134-.2833307.436558-.4023437.667968-.8193656 1.592513-.8508765 2.542561-.859375 3.683594-.0085 1.141034.016742 2.394445 1.0761719 4.160156.056581.09477.1158501.187904.1777343.279297l14.5136719 21.339844c.205566.301198.439017.582385.697266.839844 2.268529 2.268537 5.951123 2.371058 8.103515 1.337891 2.152392-1.033168 4.172793-2.991159 4.117188-6.478516v-10.722656h11.164062c.219926.000091.439681-.0123.658203-.03711-.123698.0141 1.756849.344718 3.212891 1.619141 1.433266 1.254488 2.39852 2.969091 2.525391 4.613281-.04411.652852-.09375 1.302358-.09375 1.992188v.101562l.000876 73.170822c.000386 3.20999 2.602505 5.81211 5.8125 5.8125h11.634765c3.209995-.00039 5.812114-2.60251 5.8125-5.8125l-.000876-73.170822v-.101562c0-.689859-.04964-1.339367-.09375-1.992188.126827-1.644219 1.09215-3.358834 2.525391-4.613281 1.456016-1.274381 3.336466-1.605056 3.212891-1.619141.218522.02481.438277.0372.658203.03711h11.164062v10.722656c-.0556 3.487352 1.964794 5.445348 4.117188 6.478516 2.152393 1.033167 5.834989.930645 8.103519-1.337891.25825-.257459.4917-.538646.69726-.839844l14.51367-21.339844c.0619-.09139.12116-.18453.17774-.279297 1.05942-1.765683 1.08466-3.019108 1.07617-4.160156-.008-1.141048-.04-2.091019-.85937-3.683594-.11902-.23141-.25343-.454568-.40235-.667968l-14.89453-21.333985c-.19534-.2798239-.41494-.5419036-.65625-.7832028-.55869-.5584881-1.15556-.9456594-1.55664-1.1679687h-.002c-.52984-.2934735-.641-.3282669-.23042-.1210937-.0104-.00524-.0208-.010448-.0312-.015625.15619.077671.0698.021479-.28711-.1367188-.4367-.1934858-.85459-.3142552-1.23633-.4023438-.0712-.041065.38657.032318-.43164-.1035156-.007-.00132-.0143-.00262-.0215-.00391-.45883-.074404-.009-.0054-.22071-.021484-.43151-.056902-1.008874-.1064734-1.746092-.015625l-.0098.00195c-.882913.1103552-1.559353.3633854-2.042968.5839844-.656159.2994085-.83671.449985-.564453.2949219-.312373.1782047-.719223.4360325-1.166016.8300781l-.002.00195c-.220488.194769-.423321.4016081-.576121.5722752-.398532.4448458-.68515.8866578-.892578 1.2617188-.364408.658948-.868142 1.825359-.855469 3.310547v9.09375h-11.279297c-.104869-.000237-.209725.0024-.314453.0078-6.518635.353636-12.697353 2.953365-17.501953 6.708997-4.804758-3.756159-10.984725-6.355331-17.503906-6.708985-.104728-.0054-.209584-.008-.314453-.0078h-11.279297v-9.09375c.012693-1.485408-.491202-2.651823-.855469-3.310559-.207411-.37502-.494072-.816893-.892578-1.2617188-.152837-.1707083-.355732-.3775868-.576172-.5722656l-.002-.00195c-.446244-.3936349-.852458-.650264-1.164016-.8281281l-.002-.00195c.272416.1551458.09179.00453-.564453-.2949219-.483592-.2206173-1.159976-.4736355-2.042922-.5839875l-.0098-.00195zm72.697261.1054688c.12338.02597-.0379-.00672.0586.015625-.0102-.00224-.0231-.00954-.0332-.011719-.008-.00132-.0169-.00263-.0254-.00391z" fill="url(#b)"/><path d="m28.082031 13.097656c-.0964-.01188-.194869-.0074-.292969.0059-.0111.000554-.0221-.0018-.0332 0-.0153.0025-.02982.01102-.04492.01563-.002.0006-.0039.0015-.0059.002-.0719.01546-.14299.03739-.21289.06836-.0185.0082-.03639.01824-.05469.02734-.0109.0055-.0222.0095-.0332.01563-.0927.05136-.182325.112042-.265625.195312l-14.894496 21.333891c-.26381.512739-.321467 1.602249.0332 2.193359l14.513672 21.339844c.86213.862133 2.313828.0013 2.298828-.939453v-16.626953h16.976562c4.661428-.531301 11.794854 4.676031 12.222656 11.734375-.06782.74524-.107421 1.49859-.107421 2.265625v.101562l.000876 73.170822h11.634768l-.000876-73.170822v-.101562c0-.767035-.03961-1.520385-.107422-2.265625.427616-7.058499 7.561162-12.265684 12.222657-11.734375h16.976562v16.626953c-.015.940754 1.436697 1.801586 2.298827.939453l14.51367-21.339844c.35467-.59111.29702-1.68062.0332-2.193359l-14.89452-21.333985c-.0833-.08327-.17293-.143952-.26563-.195312-.011-.0061-.0223-.01013-.0332-.01563-.0183-.0091-.0362-.01914-.0547-.02734-.0699-.03097-.14099-.0529-.21289-.06836-.002-.000421-.004-.0014-.006-.002-.0151-.0046-.0296-.01309-.0449-.01563-.0111-.0018-.0221.000554-.0332 0-.0981-.01321-.19656-.01778-.292964-.0059-.12289.01536-.240263.0547-.351563.105469-.0341.01556-.0633.03619-.0957.05469-.0718.04096-.139982.08666-.201172.140626-.0338.02985-.06395.06039-.09375.09375-.0536.05983-.09821.125682-.136719.195312-.0757.136886-.130304.285386-.128906.449219v14.955169h-17.09168c-5.734592.311091-12.369608 3.370984-16.058594 6.900391-.619083.742974-1.202314 1.498439-1.757812 2.261718-.555677-.763567-1.140455-1.518471-1.759766-2.261718-3.68898-3.529408-10.324001-6.5893-16.058593-6.900391h-17.091797v-14.955078c.0014-.163833-.05321-.312333-.128906-.449219-.03851-.06963-.08312-.135483-.136719-.195312-.0298-.03336-.05995-.0639-.09375-.09375-.06119-.05397-.129372-.09966-.201172-.140626-.0324-.0185-.0616-.03913-.0957-.05469-.1113-.05077-.228673-.09011-.351563-.105469z" fill="url(#a)"/></g></svg>

<?xml version="1.0" encoding="UTF-8" standalone="no"?>
<!-- Created with Inkscape (http://www.inkscape.org/) -->

<svg
   xmlns:dc="http://purl.org/dc/elements/1.1/"
   xmlns:cc="http://creativecommons.org/ns#"
   xmlns:rdf="http://www.w3.org/1999/02/22-rdf-syntax-ns#"
   xmlns:svg="http://www.w3.org/2000/svg"
   xmlns="http://www.w3.org/2000/svg"
   xmlns:xlink="http://www.w3.org/1999/xlink"
   xmlns:sodipodi="http://sodipodi.sourceforge.net/DTD/sodipodi-0.dtd"
   xmlns:inkscape="http://www.inkscape.org/namespaces/inkscape"
   version="1.1"
   id="svg2"
   width="128"
   height="128"
   viewBox="0 0 128 128"
   sodipodi:docname="lc_arrowshapes.split-round-arrow.svg"
   inkscape:export-filename="/home/rizmut/Dokumen/Rizmut/Github/libreoffice-style-karasa-jaga/build/images_karasa_jaga/cmd/lc_arrowshapes.split-round-arrow.png"
   inkscape:export-xdpi="16.5"
   inkscape:export-ydpi="16.5"
   inkscape:version="0.92.3 (unknown)">
  <metadata
     id="metadata8">
    <rdf:RDF>
      <cc:Work
         rdf:about="">
        <dc:format>image/svg+xml</dc:format>
        <dc:type
           rdf:resource="http://purl.org/dc/dcmitype/StillImage" />
        <dc:title></dc:title>
      </cc:Work>
    </rdf:RDF>
  </metadata>
  <defs
     id="defs6">
    <inkscape:perspective
       id="perspective27"
       inkscape:persp3d-origin="64 : 42.666667 : 1"
       inkscape:vp_z="128 : 64 : 1"
       inkscape:vp_y="0 : 1000 : 0"
       inkscape:vp_x="0 : 64 : 1"
       sodipodi:type="inkscape:persp3d" />
    <linearGradient
       id="linearGradient3369">
      <stop
         id="stop3372"
         offset="0"
         style="stop-color:#ffffff;stop-opacity:1;" />
      <stop
         style="stop-color:#ffffff;stop-opacity:1;"
         offset="0.58620691"
         id="stop3374" />
      <stop
         style="stop-color:#f1f1f1;stop-opacity:1;"
         offset="0.86206895"
         id="stop3376" />
      <stop
         id="stop3378"
         offset="0.93103451"
         style="stop-color:#eaeaea;stop-opacity:1;" />
      <stop
         id="stop3384"
         offset="1"
         style="stop-color:#dfdfdf;stop-opacity:1;" />
    </linearGradient>
    <linearGradient
       id="linearGradient7422">
      <stop
         style="stop-color:#7c9fcf;stop-opacity:1"
         offset="0"
         id="stop7424" />
      <stop
         id="stop5348"
         offset="0.5"
         style="stop-color:#7c9ece;stop-opacity:1" />
      <stop
         id="stop7426"
         offset="1"
         style="stop-color:#7b9dcf;stop-opacity:1" />
    </linearGradient>
    <linearGradient
       y2="388.95178"
       x2="399.77466"
       y1="1324.7792"
       x1="405.94968"
       gradientTransform="matrix(0.08097132,0,0,0.07807154,182.74486,-6.9021226)"
       gradientUnits="userSpaceOnUse"
       id="linearGradient2330"
       xlink:href="#linearGradient7422"
       inkscape:collect="always" />
    <linearGradient
       inkscape:collect="always"
       xlink:href="#linearGradient3369"
       id="linearGradient32736"
       x1="64"
       y1="128"
       x2="64"
       y2="12"
       gradientUnits="userSpaceOnUse" />
    <linearGradient
       inkscape:collect="always"
       xlink:href="#linearGradient7422"
       id="linearGradient863"
       x1="6.2158418"
       y1="67.636063"
       x2="121.7822"
       y2="67.636063"
       gradientUnits="userSpaceOnUse" />
  </defs>
  <sodipodi:namedview
     pagecolor="#ffffff"
     bordercolor="#666666"
     borderopacity="1"
     objecttolerance="10"
     gridtolerance="10"
     guidetolerance="10"
     inkscape:pageopacity="0"
     inkscape:pageshadow="2"
     inkscape:window-width="1366"
     inkscape:window-height="706"
     id="namedview4"
     showgrid="true"
     inkscape:snap-page="true"
     inkscape:snap-global="false"
     inkscape:zoom="1.7320077"
     inkscape:cx="19.557037"
     inkscape:cy="3.1959355"
     inkscape:window-x="0"
     inkscape:window-y="0"
     inkscape:window-maximized="1"
     inkscape:current-layer="svg2"
     showguides="true">
    <inkscape:grid
       type="xygrid"
       id="grid837"
       spacingx="5.8181"
       spacingy="5.8181"
       empspacing="1" />
  </sodipodi:namedview>
  <path
     sodipodi:type="inkscape:offset"
     inkscape:radius="5.8126178"
     inkscape:original="M 28.082031 13.097656 C 27.985631 13.085776 27.887163 13.090216 27.789062 13.103516 C 27.777963 13.10407 27.766959 13.101716 27.755859 13.103516 C 27.740559 13.106016 27.726038 13.114531 27.710938 13.119141 C 27.708938 13.119741 27.707078 13.120594 27.705078 13.121094 C 27.633178 13.136554 27.562088 13.158483 27.492188 13.189453 C 27.473688 13.197653 27.4558 13.207697 27.4375 13.216797 C 27.4266 13.222297 27.415297 13.226292 27.404297 13.232422 C 27.311597 13.283782 27.221972 13.344464 27.138672 13.427734 L 12.244141 34.761719 C 11.980331 35.274458 11.922677 36.363968 12.277344 36.955078 L 26.791016 58.294922 C 27.653146 59.157055 29.104844 58.296222 29.089844 57.355469 L 29.089844 40.728516 L 46.066406 40.728516 C 50.727834 40.197215 57.86126 45.404547 58.289062 52.462891 C 58.221243 53.208131 58.181641 53.961481 58.181641 54.728516 L 58.181641 54.830078 L 58.181641 122.18164 L 69.816406 122.18164 L 69.816406 54.830078 L 69.816406 54.728516 C 69.816406 53.961481 69.776796 53.208131 69.708984 52.462891 C 70.1366 45.404392 77.270146 40.197207 81.931641 40.728516 L 98.908203 40.728516 L 98.908203 57.355469 C 98.893203 58.296223 100.3449 59.157055 101.20703 58.294922 L 115.7207 36.955078 C 116.07537 36.363968 116.01773 35.274458 115.75391 34.761719 L 100.85938 13.427734 C 100.77608 13.344464 100.68645 13.283782 100.59375 13.232422 C 100.58275 13.226322 100.57145 13.222297 100.56055 13.216797 C 100.54225 13.207697 100.52436 13.197653 100.50586 13.189453 C 100.43596 13.158483 100.36487 13.136554 100.29297 13.121094 C 100.29097 13.120673 100.28911 13.119741 100.28711 13.119141 C 100.27201 13.114541 100.25749 13.106056 100.24219 13.103516 C 100.23109 13.101716 100.22008 13.10407 100.20898 13.103516 C 100.11088 13.090306 100.01242 13.085776 99.916016 13.097656 C 99.793126 13.113016 99.675753 13.152356 99.564453 13.203125 C 99.530353 13.218685 99.50115 13.239312 99.46875 13.257812 C 99.39695 13.298773 99.328768 13.344472 99.267578 13.398438 C 99.233778 13.428287 99.203628 13.458827 99.173828 13.492188 C 99.120228 13.552017 99.075618 13.61787 99.037109 13.6875 C 98.961409 13.824386 98.906805 13.972886 98.908203 14.136719 L 98.908203 29.091797 L 81.816406 29.091797 C 76.081814 29.402888 69.446798 32.462781 65.757812 35.992188 C 65.138729 36.735162 64.555498 37.490627 64 38.253906 C 63.444323 37.490339 62.859545 36.735435 62.240234 35.992188 C 58.551254 32.46278 51.916233 29.402888 46.181641 29.091797 L 29.089844 29.091797 L 29.089844 14.136719 C 29.091244 13.972886 29.036633 13.824386 28.960938 13.6875 C 28.922428 13.61787 28.877818 13.552017 28.824219 13.492188 C 28.794419 13.458827 28.764269 13.428288 28.730469 13.398438 C 28.669279 13.344468 28.601097 13.298779 28.529297 13.257812 C 28.496897 13.239313 28.467694 13.218685 28.433594 13.203125 C 28.322294 13.152355 28.204921 13.113015 28.082031 13.097656 z "
     style="fill:url(#linearGradient863);fill-opacity:1.0;fill-rule:evenodd;stroke:none;stroke-width:4.6329999;stroke-linecap:round;stroke-linejoin:round;stroke-miterlimit:4;stroke-dasharray:none;stroke-opacity:1"
     id="path853"
     d="m 28.792969,7.328125 c -0.731418,-0.090137 -1.308503,-0.042207 -1.746094,0.015625 -0.211608,0.016086 0.238017,-0.052903 -0.220703,0.021484 a 5.813199,5.813199 0 0 0 -0.0078,0.00195 C 25.95707,7.5079211 26.40612,7.4397387 26.359375,7.4765625 25.980828,7.5646577 25.568648,7.6836288 25.136719,7.875 24.779668,8.0332603 24.693263,8.0894645 24.849609,8.0117188 a 5.813199,5.813199 0 0 0 -0.03125,0.015625 c 0.398575,-0.2011157 0.246752,-0.1419471 -0.230468,0.1210937 -0.401168,0.2222652 -0.999538,0.6091143 -1.558594,1.1679687 a 5.813199,5.813199 0 0 0 -0.65625,0.7832028 L 7.4785156,31.433594 a 5.813199,5.813199 0 0 0 -0.4023437,0.667968 c -0.8193656,1.592513 -0.8508765,2.542561 -0.859375,3.683594 -0.0085,1.141034 0.016742,2.394445 1.0761719,4.160156 a 5.813199,5.813199 0 0 0 0.1777343,0.279297 L 21.984375,61.564453 a 5.813199,5.813199 0 0 0 0.697266,0.839844 c 2.268529,2.268537 5.951123,2.371058 8.103515,1.337891 2.152392,-1.033168 4.172793,-2.991159 4.117188,-6.478516 V 46.541016 h 11.164062 a 5.813199,5.813199 0 0 0 0.658203,-0.03711 c -0.123698,0.0141 1.756849,0.344718 3.212891,1.619141 1.433266,1.254488 2.39852,2.969091 2.525391,4.613281 -0.04411,0.652852 -0.09375,1.302358 -0.09375,1.992188 v 0.101562 67.351562 a 5.813199,5.813199 0 0 0 5.8125,5.8125 h 11.634765 a 5.813199,5.813199 0 0 0 5.8125,-5.8125 V 54.830078 54.728516 c 0,-0.689859 -0.04964,-1.339367 -0.09375,-1.992188 0.126827,-1.644219 1.09215,-3.358834 2.525391,-4.613281 1.456016,-1.274381 3.336466,-1.605056 3.212891,-1.619141 a 5.813199,5.813199 0 0 0 0.658203,0.03711 h 11.164062 v 10.722656 c -0.0556,3.487352 1.964794,5.445348 4.117188,6.478516 2.152393,1.033167 5.834989,0.930645 8.103519,-1.337891 a 5.813199,5.813199 0 0 0 0.69726,-0.839844 l 14.51367,-21.339844 a 5.813199,5.813199 0 0 0 0.17774,-0.279297 c 1.05942,-1.765683 1.08466,-3.019108 1.07617,-4.160156 -0.008,-1.141048 -0.04,-2.091019 -0.85937,-3.683594 a 5.813199,5.813199 0 0 0 -0.40235,-0.667968 L 105.625,10.099609 a 5.813199,5.813199 0 0 0 -0.65625,-0.7832028 c -0.55869,-0.5584881 -1.15556,-0.9456594 -1.55664,-1.1679687 h -0.002 C 102.88027,7.854964 102.76911,7.8201706 103.17969,8.0273438 a 5.813199,5.813199 0 0 0 -0.0312,-0.015625 c 0.15619,0.077671 0.0698,0.021479 -0.28711,-0.1367188 -0.4367,-0.1934858 -0.85459,-0.3142552 -1.23633,-0.4023438 -0.0712,-0.041065 0.38657,0.032318 -0.43164,-0.1035156 a 5.813199,5.813199 0 0 0 -0.0215,-0.00391 c -0.45883,-0.074404 -0.009,-0.0054 -0.22071,-0.021484 -0.43151,-0.056902 -1.008874,-0.1064734 -1.746092,-0.015625 a 5.813199,5.813199 0 0 0 -0.0098,0.00195 c -0.882913,0.1103552 -1.559353,0.3633854 -2.042968,0.5839844 -0.656159,0.2994085 -0.83671,0.449985 -0.564453,0.2949219 -0.312373,0.1782047 -0.719223,0.4360325 -1.166016,0.8300781 a 5.813199,5.813199 0 0 0 -0.002,0.00195 C 95.199383,9.235775 94.99655,9.4426141 94.84375,9.6132812 94.445218,10.058127 94.1586,10.499939 93.951172,10.875 c -0.364408,0.658948 -0.868142,1.825359 -0.855469,3.310547 v 9.09375 H 81.816406 a 5.813199,5.813199 0 0 0 -0.314453,0.0078 C 74.983318,23.640733 68.8046,26.240462 64,29.996094 59.195242,26.239935 53.015275,23.640763 46.496094,23.287109 a 5.813199,5.813199 0 0 0 -0.314453,-0.0078 H 34.902344 v -9.09375 C 34.915037,12.700151 34.411142,11.533736 34.046875,10.875 33.839464,10.49998 33.552803,10.058107 33.154297,9.6132812 33.00146,9.4425729 32.798565,9.2356944 32.578125,9.0410156 a 5.813199,5.813199 0 0 0 -0.002,-0.00195 C 32.129881,8.6454307 31.723667,8.3888016 31.412109,8.2109375 l -0.002,-0.00195 c 0.272416,0.1551458 0.09179,0.00453 -0.564453,-0.2949219 C 30.362064,7.6934483 29.68568,7.4404301 28.802734,7.3300781 a 5.813199,5.813199 0 0 0 -0.0098,-0.00195 z m 72.697261,0.1054688 c 0.12338,0.02597 -0.0379,-0.00672 0.0586,0.015625 -0.0102,-0.00224 -0.0231,-0.00954 -0.0332,-0.011719 a 5.813199,5.813199 0 0 0 -0.0254,-0.00391 z" />
  <path
     style="fill:url(#linearGradient32736);fill-opacity:1;fill-rule:evenodd;stroke:none;stroke-width:4.6329999;stroke-linecap:round;stroke-linejoin:round;stroke-miterlimit:4;stroke-dasharray:none;stroke-opacity:1"
     d="M 28.082031 13.097656 C 27.985627 13.085776 27.887162 13.090306 27.789062 13.103516 C 27.777962 13.10407 27.766959 13.101716 27.755859 13.103516 C 27.740559 13.106056 27.726038 13.114541 27.710938 13.119141 C 27.708938 13.119741 27.707078 13.120673 27.705078 13.121094 C 27.633178 13.136554 27.562088 13.158483 27.492188 13.189453 C 27.473687 13.197653 27.4558 13.207697 27.4375 13.216797 C 27.4266 13.222297 27.415297 13.226322 27.404297 13.232422 C 27.311597 13.283782 27.221972 13.344464 27.138672 13.427734 L 12.244141 34.761719 C 11.980331 35.274458 11.922674 36.363968 12.277344 36.955078 L 26.791016 58.294922 C 27.653146 59.157055 29.104844 58.296223 29.089844 57.355469 L 29.089844 40.728516 L 46.066406 40.728516 C 50.727834 40.197215 57.86126 45.404547 58.289062 52.462891 C 58.221247 53.208131 58.181641 53.961481 58.181641 54.728516 L 58.181641 54.830078 L 58.181641 122.18164 L 69.816406 122.18164 L 69.816406 54.830078 L 69.816406 54.728516 C 69.816406 53.961481 69.7768 53.208131 69.708984 52.462891 C 70.1366 45.404392 77.270146 40.197207 81.931641 40.728516 L 98.908203 40.728516 L 98.908203 57.355469 C 98.893203 58.296223 100.3449 59.157055 101.20703 58.294922 L 115.7207 36.955078 C 116.07537 36.363968 116.01772 35.274458 115.75391 34.761719 L 100.85938 13.427734 C 100.77607 13.344464 100.68645 13.283782 100.59375 13.232422 C 100.58275 13.226322 100.57145 13.222297 100.56055 13.216797 C 100.54225 13.207697 100.52436 13.197653 100.50586 13.189453 C 100.43596 13.158483 100.36487 13.136554 100.29297 13.121094 C 100.29097 13.120673 100.28911 13.119741 100.28711 13.119141 C 100.27201 13.114541 100.25749 13.106056 100.24219 13.103516 C 100.23109 13.101716 100.22008 13.10407 100.20898 13.103516 C 100.11088 13.090306 100.01242 13.085736 99.916016 13.097656 C 99.793126 13.113016 99.675753 13.152356 99.564453 13.203125 C 99.530353 13.218685 99.50115 13.239313 99.46875 13.257812 C 99.39695 13.298774 99.328768 13.34447 99.267578 13.398438 C 99.233778 13.428286 99.203628 13.458827 99.173828 13.492188 C 99.120228 13.552016 99.075618 13.61787 99.037109 13.6875 C 98.961409 13.824386 98.906805 13.972886 98.908203 14.136719 L 98.908203 29.091797 L 81.816406 29.091797 C 76.081814 29.402888 69.446798 32.462781 65.757812 35.992188 C 65.138729 36.735162 64.555498 37.490627 64 38.253906 C 63.444323 37.490339 62.859545 36.735435 62.240234 35.992188 C 58.551254 32.46278 51.916233 29.402888 46.181641 29.091797 L 29.089844 29.091797 L 29.089844 14.136719 C 29.091242 13.972886 29.036638 13.824386 28.960938 13.6875 C 28.922429 13.61787 28.877819 13.552017 28.824219 13.492188 C 28.794419 13.458827 28.764269 13.428287 28.730469 13.398438 C 28.669279 13.344472 28.601097 13.298773 28.529297 13.257812 C 28.496897 13.239312 28.467694 13.218685 28.433594 13.203125 C 28.322294 13.152356 28.204921 13.113016 28.082031 13.097656 z "
     id="path32691" />
</svg>
